public/operators/withbg/rabona.svg

<svg width="150" height="120" viewBox="0 0 150 120" fill="none" xmlns="http://www.w3.org/2000/svg">
<g clip-path="url(#clip0_166_2)">
<path d="M150 0H0V120H150V0Z" fill="#CC0034"/>
<path d="M23 53.6329H27.088L36.6264 68.6223H32.5383L23 53.6329Z" fill="white"/>
<path fill-rule="evenodd" clip-rule="evenodd" d="M33.8581 51.6953C32.618 50.5651 30.8669 50 28.6052 50H23V53.5421H29.2584C30.3641 53.5421 31.1099 53.8547 31.4956 54.4789C31.8813 55.0857 32.0735 55.7184 32.0735 56.3767C32.0735 56.7644 31.9816 57.1695 31.7971 57.5911C31.6126 58.0127 31.3111 58.3838 30.8926 58.7045C30.4734 59.008 29.9205 59.1598 29.234 59.1598H23V68.6228H26.6451V62.7275H29.2584C30.7833 62.7275 32.0227 62.4152 32.9787 61.7911C33.9501 61.1674 34.6457 60.3741 35.0648 59.4123C35.5 58.4346 35.718 57.3886 35.718 56.2752C35.718 54.3356 35.0983 52.8087 33.8581 51.6953Z" fill="white"/>
<path d="M49.7979 65.3957H43.7933L42.3173 68.9359H38.7988L46.9679 50.1293H47.1646L55.3335 68.9359H51.1999L49.7979 65.3957ZM48.6169 62.3967L46.8694 57.9961L45.0489 62.3967H48.6169ZM67.2995 59.3977C68.2508 59.8398 68.9889 60.4217 69.5135 61.143C70.0555 61.8477 70.3253 62.6665 70.3253 63.6013C70.3253 65.4367 69.7185 66.7887 68.5049 67.6578C67.3078 68.5096 65.8067 68.9359 64.0021 68.9359H57.9738V50.8423H63.2884C65.2082 50.8423 66.7168 51.2356 67.8163 52.0225C68.9155 52.7926 69.4645 53.9152 69.4645 55.3905C69.4645 56.2918 69.2761 57.0865 68.8989 57.7751C68.5214 58.4468 67.9878 58.9875 67.2995 59.3977ZM61.5418 58.2423H63.7071C64.3627 58.2423 64.8712 58.0457 65.2326 57.6521C65.5932 57.2419 65.7738 56.7425 65.7738 56.1525C65.7738 55.5461 65.5681 55.0872 65.1586 54.7761C64.7485 54.4481 64.1826 54.2842 63.4609 54.2842H61.5418V58.2423ZM63.8305 65.6167C64.6662 65.6167 65.3392 65.4535 65.8477 65.1256C66.3723 64.781 66.6346 64.273 66.6346 63.6013C66.6346 62.3227 65.6176 61.6837 63.5836 61.6837H61.5418V65.6167H63.8305ZM107.99 50.8423V69.6732H107.891L95.2194 58.2416L95.2934 68.9359H91.6766V50.1293H91.8237L104.471 61.7332L104.398 50.8428L107.99 50.8423ZM121.61 65.3957H115.606L114.129 68.9359H110.611L118.78 50.1293H118.977L127.147 68.9359H123.012L121.61 65.3957ZM120.429 62.3967L118.682 57.9961L116.861 62.3967H120.429ZM74.4223 51.4935H87.1486V55.1296H74.4223V51.4935Z" fill="white"/>
<path fill-rule="evenodd" clip-rule="evenodd" d="M80.7861 69.2201C84.3007 69.2201 87.1492 66.3714 87.1492 62.8568C87.1492 59.343 84.3007 56.4938 80.7861 56.4938C77.272 56.4938 74.4229 59.343 74.4229 62.8568C74.4229 66.3714 77.272 69.2201 80.7861 69.2201ZM80.7878 65.584C81.5113 65.584 82.2047 65.2966 82.7162 64.7852C83.2276 64.2738 83.515 63.5803 83.515 62.8568C83.515 62.1336 83.2276 61.4399 82.7162 60.9285C82.2047 60.4171 81.5113 60.1299 80.7878 60.1299C80.0646 60.1299 79.3709 60.4171 78.8595 60.9285C78.3481 61.4399 78.0609 62.1336 78.0609 62.8568C78.0609 63.5803 78.3481 64.2738 78.8595 64.7852C79.3709 65.2966 80.0646 65.584 80.7878 65.584Z" fill="#ECFD00"/>
<path opacity="0.2" fill-rule="evenodd" clip-rule="evenodd" d="M33.8993 64.0424L31.7624 60.9007C31.3914 61.0459 30.9524 61.1186 30.4445 61.1186H27.54L29.9675 64.6866H30.4715C31.8235 64.6866 32.9658 64.4719 33.8993 64.0424ZM28.4291 55.4497H23.207H23.2282L23 53.6329H27.2494L28.4509 55.4497H28.4291Z" fill="black"/>
</g>
<defs>
<clipPath id="clip0_166_2">
<rect width="150" height="120" fill="white"/>
</clipPath>
</defs>
</svg>

<svg xmlns="http://www.w3.org/2000/svg" width="150" height="120" fill="none"><g clip-path="url(#a)"><path fill="#CC0034" d="M150 0H0v120h150V0Z"/><path fill="#fff" d="M23 53.63h4.09l9.54 15h-4.1l-9.53-15Z"/><path fill="#fff" fill-rule="evenodd" d="M33.86 51.7c-1.24-1.13-3-1.7-5.25-1.7H23v3.54h6.26c1.1 0 1.85.31 2.24.94.38.6.57 1.24.57 1.9 0 .38-.09.79-.27 1.21-.19.42-.49.8-.9 1.11-.43.3-.98.46-1.67.46H23v9.46h3.65v-5.9h2.6a6.7 6.7 0 0 0 3.73-.93 5.35 5.35 0 0 0 2.08-2.38c.44-.98.66-2.02.66-3.13 0-1.94-.62-3.47-1.86-4.58Z" clip-rule="evenodd"/><path fill="#fff" d="M49.8 65.4h-6l-1.48 3.54H38.8l8.17-18.81h.2l8.16 18.8H51.2l-1.4-3.53Zm-1.18-3L46.87 58l-1.82 4.4h3.57Zm18.68-3a5.56 5.56 0 0 1 2.21 1.74c.55.7.82 1.53.82 2.46 0 1.84-.61 3.19-1.83 4.06a7.57 7.57 0 0 1-4.5 1.28h-6.03v-18.1h5.32c1.92 0 3.43.4 4.53 1.18 1.1.77 1.64 1.9 1.64 3.37a4.35 4.35 0 0 1-2.17 4Zm-5.76-1.16h2.17c.65 0 1.16-.2 1.52-.59.36-.4.54-.9.54-1.5s-.2-1.06-.61-1.37c-.41-.33-.98-.5-1.7-.5h-1.92v3.96Zm2.3 7.38c.83 0 1.5-.17 2-.5.53-.34.8-.85.8-1.52 0-1.28-1.02-1.92-3.06-1.92h-2.04v3.94h2.3Zm44.15-14.78v18.83h-.1L95.22 58.24l.07 10.7h-3.61V50.13h.14l12.65 11.6-.07-10.89h3.59Zm13.62 14.56h-6l-1.48 3.54h-3.52l8.17-18.81h.2l8.17 18.8H123l-1.4-3.53Zm-1.18-3-1.75-4.4-1.82 4.4h3.57Zm-46-10.9h12.72v3.63H74.42v-3.64Z"/><path fill="#ECFD00" fill-rule="evenodd" d="M80.79 69.22a6.36 6.36 0 1 0 0-12.73 6.36 6.36 0 0 0 0 12.73Zm0-3.64a2.73 2.73 0 1 0 0-5.45 2.73 2.73 0 0 0 0 5.45Z" clip-rule="evenodd"/><path fill="#000" fill-rule="evenodd" d="m33.9 64.04-2.14-3.14a3.6 3.6 0 0 1-1.32.22h-2.9l2.43 3.57h.5c1.35 0 2.5-.22 3.43-.65Zm-5.47-8.59H23.2h.02L23 53.63h4.25l1.2 1.82h-.02Z" clip-rule="evenodd" opacity=".2"/></g><defs><clipPath id="a"><path fill="#fff" d="M0 0h150v120H0z"/></clipPath></defs></svg>
